assets/images/dashboard/dashboard_empty_bank.svg

<svg width="150" height="101" viewBox="0 0 150 101" fill="none" xmlns="http://www.w3.org/2000/svg">
<path d="M144.144 54.9268C147.933 50.2522 150 44.4178 150 38.4008C150 32.3838 147.933 26.5494 144.144 21.8748C141.684 18.8302 138.573 16.3745 135.041 14.6875C131.509 13.0006 127.644 12.125 123.73 12.125C119.815 12.125 115.95 13.0006 112.418 14.6875C108.886 16.3745 105.775 18.8302 103.315 21.8748C99.5266 26.5494 97.4592 32.3838 97.4592 38.4008C97.4592 44.4178 99.5266 50.2522 103.315 54.9268V54.9268C105.775 57.9714 108.886 60.4271 112.418 62.1141C115.95 63.801 119.815 64.6766 123.73 64.6766C127.644 64.6766 131.509 63.801 135.041 62.1141C138.573 60.4271 141.684 57.9714 144.144 54.9268V54.9268ZM140.256 37.9147C140.171 32.5736 138.613 27.3595 135.755 22.8469H143.629C147.014 27.1501 148.901 32.4407 149.005 37.9147H140.256ZM139.283 37.9147H124.216V22.8469H134.569C137.554 27.3127 139.191 32.5437 139.283 37.9147ZM124.216 21.8748V13.4757C128.057 15.4937 131.383 18.3673 133.937 21.8748H124.216ZM123.244 21.8748H113.522C116.08 18.3704 119.405 15.4974 123.244 13.4757V21.8748ZM123.244 22.8469V37.9147H108.176C108.268 32.5437 109.905 27.3127 112.89 22.8469H123.244ZM107.204 37.9147H98.4545C98.5578 32.4407 100.445 27.1501 103.83 22.8469H111.704C108.846 27.3595 107.288 32.5736 107.204 37.9147V37.9147ZM107.204 38.8869C107.288 44.228 108.846 49.4421 111.704 53.9547H103.83C100.445 49.6515 98.5578 44.3609 98.4545 38.8869H107.204ZM108.176 38.8869H123.244V53.9547H112.89C109.905 49.4889 108.268 44.2579 108.176 38.8869V38.8869ZM123.244 54.9268V63.3259C119.407 61.3016 116.082 58.4291 113.522 54.9268H123.244ZM124.216 54.9268H133.937C131.383 58.4343 128.057 61.3079 124.216 63.3259V54.9268ZM124.216 53.9547V38.8869H139.283C139.191 44.2579 137.554 49.4889 134.569 53.9547H124.216ZM140.256 38.8869H149.005C148.901 44.3609 147.014 49.6515 143.629 53.9547H135.755C138.613 49.4421 140.171 44.228 140.256 38.8869ZM142.832 21.8748H135.113C132.67 18.339 129.481 15.3823 125.771 13.2132C132.373 13.7532 138.5 16.8635 142.832 21.8748V21.8748ZM121.688 13.2132C117.978 15.3823 114.789 18.339 112.346 21.8748H104.627C108.96 16.8635 115.086 13.7532 121.688 13.2132V13.2132ZM104.627 54.9268H112.346C114.789 58.4626 117.978 61.4193 121.688 63.5884C115.086 63.0484 108.96 59.9381 104.627 54.9268V54.9268ZM125.771 63.5884C129.481 61.4193 132.67 58.4626 135.113 54.9268H142.832C138.5 59.9381 132.373 63.0484 125.771 63.5884V63.5884Z" fill="#A5D2DC"/>
<path d="M86.4441 38.6837L71.3084 53.9042C69.8878 55.3329 68.9204 57.1531 68.5284 59.1346C68.1365 61.1162 68.3377 63.1701 69.1065 65.0366C69.8753 66.9032 71.1773 68.4986 72.8478 69.6211C74.5182 70.7436 76.4822 71.3428 78.4913 71.3428V71.3428C79.8286 71.3487 81.1538 71.0872 82.3898 70.5735C83.6257 70.0598 84.7478 69.3042 85.6908 68.3506L100.81 53.13C102.319 51.6138 103.315 49.658 103.656 47.5404C103.998 45.4228 103.667 43.2508 102.712 41.3327L99.3825 44.6807C99.5886 45.6496 99.5503 46.6549 99.2712 47.6052C98.9921 48.5554 98.481 49.4203 97.7844 50.1211L82.2825 65.6974C81.1852 66.6644 79.7755 67.1969 78.3165 67.1956C77.5454 67.1956 76.782 67.0418 76.0704 66.7429C75.3589 66.444 74.7135 66.0061 74.1715 65.4545C73.6296 64.9029 73.2019 64.2486 72.9133 63.5295C72.6247 62.8104 72.4809 62.0409 72.4903 61.2655C72.5034 59.8178 73.0337 58.4231 73.9843 57.3359V57.3359L74.2007 57.1183L74.2839 57.0304L74.3131 57.0053L74.363 56.9509L89.4945 41.7345C90.0395 41.1826 90.6879 40.7449 91.4023 40.4468C92.1166 40.1487 92.8827 39.996 93.6561 39.9977C94.0616 39.9974 94.4661 40.0395 94.863 40.1233L98.1922 36.7753C96.7847 36.0694 95.2331 35.7026 93.6603 35.704C92.3264 35.7007 91.0051 35.9635 89.7729 36.4771C88.5407 36.9907 87.422 37.7449 86.4815 38.6962L86.4441 38.6837ZM115.821 22.3917C115.824 21.0497 115.563 19.7203 115.052 18.4804C114.542 17.2406 113.791 16.1149 112.845 15.1685C111.905 14.2167 110.787 13.4621 109.554 12.9484C108.322 12.4348 107 12.1723 105.666 12.1763C104.332 12.1727 103.01 12.4353 101.777 12.9489C100.544 13.4625 99.4246 14.217 98.4836 15.1685L83.3437 30.3933C81.8346 31.9078 80.8382 33.8618 80.496 35.978C80.1539 38.0942 80.4834 40.265 81.4377 42.1823L84.6172 38.9808C84.4405 38.0704 84.4731 37.1314 84.7126 36.2356C84.9521 35.3399 85.392 34.511 85.9988 33.8124V33.8124L86.2069 33.599L86.2901 33.5111L86.3151 33.486L86.3692 33.4358L101.505 18.1984C102.051 17.648 102.699 17.2116 103.414 16.9143C104.128 16.617 104.893 16.4646 105.666 16.4659C106.439 16.4646 107.205 16.617 107.919 16.9143C108.633 17.2116 109.282 17.648 109.828 18.1984C110.928 19.3104 111.545 20.815 111.545 22.3834C111.545 23.9517 110.928 25.4563 109.828 26.5683L94.3178 42.1823C93.2228 43.1503 91.814 43.6831 90.356 43.6805C89.9618 43.6817 89.5686 43.6424 89.1824 43.5633L86.003 46.7648C87.4121 47.4702 88.965 47.8369 90.5391 47.8361C91.8737 47.8404 93.1959 47.5781 94.429 47.0645C95.662 46.5508 96.7813 45.796 97.722 44.8439L112.858 29.6275C113.804 28.6811 114.554 27.5555 115.065 26.3156C115.576 25.0757 115.837 23.7463 115.833 22.4043" fill="#B99855"/>
<path opacity="0.2" d="M41.596 6.78456C42.2765 6.49307 43.009 6.34277 43.7493 6.34277C44.4895 6.34277 45.2221 6.49307 45.9025 6.78456L84.1827 23.191C85.3399 23.6855 86.2903 24.5651 86.8728 25.6806C87.4553 26.796 87.6339 28.0787 87.3785 29.3109C86.8658 31.8573 84.6271 33.5321 81.8757 33.6859V35.0531C81.8757 37.3261 80.2009 39.1547 77.7742 39.1547H9.41673C7.30448 39.1547 5.31528 37.3261 5.31528 35.0531V33.6859C2.8732 33.5321 0.634495 31.8573 0.11156 29.3109C-0.140113 28.0781 0.0410174 26.7962 0.624408 25.6813C1.2078 24.5665 2.15776 23.6869 3.31411 23.191L41.596 6.78456ZM43.7493 28.2171C44.8309 28.2171 45.8882 27.8964 46.7875 27.2955C47.6868 26.6946 48.3877 25.8404 48.8016 24.8412C49.2155 23.8419 49.3238 22.7423 49.1128 21.6814C48.9018 20.6206 48.381 19.6461 47.6162 18.8813C46.8514 18.1165 45.877 17.5956 44.8162 17.3846C43.7553 17.1736 42.6558 17.2819 41.6565 17.6958C40.6573 18.1097 39.8032 18.8107 39.2023 19.71C38.6014 20.6094 38.2807 21.6667 38.2807 22.7483C38.2807 24.1988 38.8568 25.5898 39.8824 26.6154C40.908 27.641 42.2989 28.2171 43.7493 28.2171ZM21.7211 77.4364H28.5568V44.6235H39.494V77.4364H47.8507V44.6235H58.7879V77.4364H65.6237V44.6235H76.5609V78.1712C76.6634 78.2225 76.766 78.1371 76.8685 78.3592L85.0714 83.828C86.0466 84.4802 86.7862 85.4288 87.181 86.5336C87.5759 87.6384 87.6049 88.8409 87.2639 89.9634C86.923 91.086 86.23 92.0692 85.2875 92.7677C84.3449 93.4663 83.2027 93.8432 82.0295 93.8428H5.31528C3.05948 93.8428 0.933559 92.2705 0.234603 89.9633C-0.10551 88.8399 -0.0751283 87.6368 0.321256 86.5319C0.71764 85.427 1.45899 84.479 2.43572 83.828L10.6386 78.3592C10.736 78.1371 10.8369 78.2225 10.7839 78.1712V44.6235H21.7211V77.4364Z" fill="url(#paint0_linear_2342_50137)"/>
<circle cx="43.7499" cy="22.5929" r="5.41667" fill="#A5D2DC"/>
<defs>
<linearGradient id="paint0_linear_2342_50137" x1="43.75" y1="50.3945" x2="43.75" y2="93.8428" gradientUnits="userSpaceOnUse">
<stop stop-color="#A5D2DC"/>
<stop offset="1" stop-color="#A5D2DC" stop-opacity="0"/>
</linearGradient>
</defs>
</svg>

<svg width="150" height="101" viewBox="0 0 150 101" fill="none" xmlns="http://www.w3.org/2000/svg"><path d="M144.144 54.927a26.244 26.244 0 0 0 0-33.052 26.247 26.247 0 0 0-40.829 0 26.248 26.248 0 0 0 0 33.052 26.247 26.247 0 0 0 40.829 0Zm-3.888-17.012a29.025 29.025 0 0 0-4.501-15.068h7.874a25.143 25.143 0 0 1 5.376 15.068h-8.749Zm-.973 0h-15.067V22.847h10.353a27.978 27.978 0 0 1 4.714 15.068Zm-15.067-16.04v-8.4a28.316 28.316 0 0 1 9.721 8.4h-9.721Zm-.972 0h-9.722a28.447 28.447 0 0 1 9.722-8.4v8.4Zm0 .972v15.068h-15.068a27.978 27.978 0 0 1 4.714-15.068h10.354Zm-16.04 15.068h-8.75a25.138 25.138 0 0 1 5.376-15.068h7.874a29.015 29.015 0 0 0-4.5 15.068Zm0 .972a29.015 29.015 0 0 0 4.5 15.068h-7.874a25.138 25.138 0 0 1-5.376-15.068h8.75Zm.972 0h15.068v15.068H112.89a27.978 27.978 0 0 1-4.714-15.068Zm15.068 16.04v8.399a28.535 28.535 0 0 1-9.722-8.4h9.722Zm.972 0h9.721a28.316 28.316 0 0 1-9.721 8.399v-8.4Zm0-.972V38.887h15.067a27.978 27.978 0 0 1-4.714 15.068h-10.353Zm16.04-15.068h8.749a25.143 25.143 0 0 1-5.376 15.068h-7.874a29.025 29.025 0 0 0 4.501-15.068Zm2.576-17.012h-7.719a29.378 29.378 0 0 0-9.342-8.662 25.276 25.276 0 0 1 17.061 8.662Zm-21.144-8.662a29.378 29.378 0 0 0-9.342 8.662h-7.719a25.278 25.278 0 0 1 17.061-8.662Zm-17.061 41.714h7.719a29.378 29.378 0 0 0 9.342 8.661 25.278 25.278 0 0 1-17.061-8.661Zm21.144 8.661a29.378 29.378 0 0 0 9.342-8.661h7.719a25.276 25.276 0 0 1-17.061 8.661Z" fill="#A5D2DC"/><path d="m86.444 38.684-15.136 15.22a10.234 10.234 0 0 0-2.78 5.23 10.269 10.269 0 0 0 .578 5.903 10.203 10.203 0 0 0 3.742 4.584 10.117 10.117 0 0 0 5.643 1.722 10.042 10.042 0 0 0 3.899-.77 10.089 10.089 0 0 0 3.3-2.222l15.12-15.221a10.261 10.261 0 0 0 1.902-11.797l-3.33 3.348a5.971 5.971 0 0 1-.11 2.924 5.955 5.955 0 0 1-1.488 2.516L82.282 65.697a5.99 5.99 0 0 1-3.965 1.499 5.8 5.8 0 0 1-4.145-1.742 5.862 5.862 0 0 1-1.682-4.188 6.054 6.054 0 0 1 1.494-3.93l.217-.218.083-.088.03-.025.049-.054 15.132-15.217a5.845 5.845 0 0 1 5.368-1.61l3.33-3.349a10.088 10.088 0 0 0-4.533-1.071 10.039 10.039 0 0 0-3.887.773 10.085 10.085 0 0 0-3.291 2.22l-.038-.013Zm29.377-16.292a10.205 10.205 0 0 0-.769-3.912 10.145 10.145 0 0 0-2.207-3.312 10.066 10.066 0 0 0-3.291-2.22 10.027 10.027 0 0 0-3.888-.772 10.043 10.043 0 0 0-3.889.773 10.088 10.088 0 0 0-3.293 2.22l-15.14 15.224a10.224 10.224 0 0 0-2.848 5.585 10.254 10.254 0 0 0 .942 6.204l3.18-3.201a6.117 6.117 0 0 1 1.38-5.169l.209-.213.083-.088.025-.025.054-.05 15.136-15.238a5.855 5.855 0 0 1 6.414-1.284 5.865 5.865 0 0 1 1.909 1.284 5.95 5.95 0 0 1 1.717 4.185 5.95 5.95 0 0 1-1.717 4.185l-15.51 15.614a5.965 5.965 0 0 1-5.136 1.381l-3.179 3.202a10.121 10.121 0 0 0 4.536 1.071 10.032 10.032 0 0 0 3.89-.771 10.078 10.078 0 0 0 3.293-2.221l15.136-15.216a10.186 10.186 0 0 0 2.975-7.223" fill="#B99855"/><path opacity=".2" d="M41.596 6.785a5.469 5.469 0 0 1 4.307 0l38.28 16.406a5.451 5.451 0 0 1 3.195 6.12c-.512 2.546-2.75 4.221-5.502 4.375v1.367c0 2.273-1.675 4.102-4.102 4.102H9.417c-2.113 0-4.102-1.829-4.102-4.102v-1.367C2.873 33.532.635 31.857.112 29.31a5.47 5.47 0 0 1 3.202-6.12L41.596 6.785Zm2.153 21.432a5.469 5.469 0 1 0 0-10.937 5.469 5.469 0 0 0 0 10.937Zm-22.028 49.22h6.836V44.623h10.937v32.812h8.357V44.623h10.937v32.813h6.836V44.623H76.56v33.548c.102.051.205-.034.307.188l8.203 5.469a5.469 5.469 0 0 1-3.041 10.015H5.314c-2.256 0-4.381-1.573-5.08-3.88a5.469 5.469 0 0 1 2.2-6.135l8.204-5.469c.097-.222.198-.136.145-.188V44.623H21.72v32.813Z" fill="url(#a)"/><circle cx="43.75" cy="22.593" r="5.417" fill="#A5D2DC"/><defs><linearGradient id="a" x1="43.75" y1="50.395" x2="43.75" y2="93.843" gradientUnits="userSpaceOnUse"><stop stop-color="#A5D2DC"/><stop offset="1" stop-color="#A5D2DC" stop-opacity="0"/></linearGradient></defs></svg>
